src/assets/icons/shapes,simple,outline-star5.svg

<svg width="48" height="48" viewBox="0 0 48 48" fill="none" xmlns="http://www.w3.org/2000/svg">
<rect opacity="0.2" x="5" y="5" width="38" height="38" rx="4" fill="black"/>
<path d="M23.1221 11.6984C23.5257 10.9582 23.7757 10.5054 23.9883 10.2235C23.9923 10.2183 23.9962 10.2132 24 10.2082C24.0038 10.2132 24.0077 10.2183 24.0117 10.2235C24.2243 10.5054 24.4743 10.9582 24.8779 11.6984L27.6519 16.7848C27.667 16.8124 27.6823 16.8409 27.698 16.8701C27.8688 17.187 28.0866 17.5911 28.4595 17.862C28.8324 18.1329 29.284 18.2152 29.6382 18.2797C29.6708 18.2856 29.7027 18.2914 29.7335 18.2972L35.4283 19.3636C36.2569 19.5188 36.7648 19.6166 37.0986 19.7317C37.1048 19.7339 37.1109 19.736 37.1168 19.7381C37.1132 19.7433 37.1096 19.7485 37.1058 19.7539C36.9034 20.0433 36.55 20.4209 35.9708 21.0335L31.9905 25.2436C31.969 25.2664 31.9466 25.2898 31.9237 25.3138C31.6751 25.5741 31.358 25.9062 31.2156 26.3445C31.0732 26.7828 31.1345 27.2378 31.1826 27.5946C31.1871 27.6275 31.1914 27.6595 31.1954 27.6906L31.941 33.4362C32.0495 34.2722 32.1134 34.7855 32.107 35.1385C32.1069 35.1451 32.1068 35.1515 32.1066 35.1578C32.1006 35.156 32.0945 35.1542 32.0882 35.1523C31.7505 35.0492 31.2821 34.8298 30.5205 34.4683L25.2865 31.9837C25.2581 31.9703 25.229 31.9563 25.1991 31.9419C24.8746 31.7859 24.4609 31.5869 24 31.5869C23.5391 31.5869 23.1254 31.7859 22.8009 31.9419C22.771 31.9563 22.7419 31.9703 22.7135 31.9837L17.4795 34.4683C16.7179 34.8298 16.2495 35.0492 15.9118 35.1523C15.9055 35.1542 15.8994 35.156 15.8934 35.1578C15.8932 35.1516 15.8931 35.1451 15.893 35.1385C15.8866 34.7855 15.9505 34.2722 16.059 33.4362L16.8046 27.6906C16.8086 27.6595 16.8129 27.6275 16.8174 27.5946C16.8655 27.2378 16.9268 26.7828 16.7844 26.3445C16.642 25.9062 16.3249 25.5741 16.0763 25.3138C16.0534 25.2898 16.031 25.2664 16.0095 25.2436L12.0292 21.0335C11.45 20.4209 11.0966 20.0433 10.8942 19.7539C10.8904 19.7485 10.8868 19.7433 10.8832 19.7381C10.8891 19.736 10.8952 19.7339 10.9014 19.7317C11.2352 19.6166 11.7431 19.5188 12.5717 19.3636L18.2665 18.2972C18.2973 18.2914 18.3292 18.2856 18.3618 18.2797C18.716 18.2152 19.1676 18.1329 19.5405 17.862C19.9134 17.5911 20.1312 17.187 20.302 16.8701C20.3177 16.8409 20.333 16.8124 20.3481 16.7848L23.1221 11.6984ZM24.1425 10.0513C24.1425 10.0515 24.1403 10.0533 24.1361 10.0559C24.1404 10.0524 24.1426 10.0511 24.1425 10.0513ZM23.864 10.0559C23.8597 10.0533 23.8575 10.0515 23.8575 10.0513C23.8574 10.0511 23.8596 10.0524 23.864 10.0559ZM37.31 19.8252C37.3098 19.8252 37.3075 19.8237 37.3037 19.8204C37.3083 19.8235 37.3102 19.8251 37.31 19.8252ZM37.2196 19.5616C37.2207 19.5568 37.2217 19.5541 37.2219 19.5541C37.2221 19.554 37.2215 19.5564 37.2196 19.5616ZM32.0835 35.3685C32.0834 35.3683 32.0841 35.3656 32.086 35.361C32.0846 35.3664 32.0836 35.3687 32.0835 35.3685ZM32.3062 35.201C32.3112 35.2006 32.314 35.2008 32.3141 35.2009C32.3143 35.2011 32.3118 35.2013 32.3062 35.201ZM15.6859 35.2009C15.686 35.2008 15.6888 35.2006 15.6938 35.201C15.6882 35.2013 15.6857 35.2011 15.6859 35.2009ZM15.914 35.361C15.9159 35.3656 15.9166 35.3683 15.9165 35.3685C15.9164 35.3687 15.9154 35.3664 15.914 35.361ZM10.7781 19.5541C10.7783 19.5541 10.7793 19.5568 10.7804 19.5617C10.7785 19.5564 10.7779 19.554 10.7781 19.5541ZM10.6964 19.8204C10.6925 19.8237 10.6902 19.8252 10.69 19.8252C10.6898 19.8251 10.6917 19.8235 10.6964 19.8204Z" stroke="black" stroke-width="2"/>
</svg>

<svg xmlns="http://www.w3.org/2000/svg" width="48" height="48" fill="none" viewBox="0 0 48 48">
  <rect width="38" height="38" x="5" y="5" fill="#000" opacity=".2" rx="4"/>
  <path stroke="#000" stroke-width="2" d="M24.878 11.698l2.774 5.087.046.085c.17.317.389.721.761.992.373.27.825.353 1.18.418l.095.017 5.694 1.067c.829.155 1.337.253 1.67.368l.019.006-.011.016c-.203.29-.556.667-1.135 1.28l-3.98 4.21-.067.07c-.249.26-.566.592-.708 1.03-.143.439-.082.894-.033 1.25l.012.097.746 5.745c.109.836.172 1.35.166 1.703v.019l-.019-.006c-.338-.103-.806-.322-1.568-.684l-5.233-2.484a12.27 12.27 0 01-.088-.042c-.324-.156-.738-.355-1.199-.355-.46 0-.875.199-1.2.355l-.087.042-5.233 2.484c-.762.362-1.23.581-1.568.684l-.019.006v-.02c-.006-.352.057-.866.166-1.702l.746-5.745.012-.096c.049-.357.11-.812-.033-1.25-.142-.439-.46-.77-.708-1.031l-.067-.07-3.98-4.21c-.579-.613-.932-.99-1.135-1.28a2.477 2.477 0 01-.01-.016l.017-.006c.334-.115.842-.213 1.67-.368l5.696-1.067a13.8 13.8 0 01.095-.017c.354-.065.806-.147 1.179-.418.372-.27.59-.675.761-.992l.046-.085 2.774-5.087c.404-.74.654-1.193.866-1.475l.012-.015.012.015c.212.282.462.735.866 1.475zm12.432 8.127a.04.04 0 01-.006-.005.027.027 0 01.006.005zm-.09-.263a.03.03 0 01.002-.008l-.002.008zm-5.136 15.806l.002-.007a.028.028 0 01-.002.008zm.222-.167h0zm-16.62 0h.008-.008zm.228.16a.033.033 0 01.002.008l-.002-.008zm-5.136-15.807l.002.008a.033.033 0 01-.002-.008zm-.082.266a.04.04 0 01-.006.005l.006-.005zm13.446-9.769l-.006.005a.033.033 0 01.006-.005zm-.278.005a.032.032 0 01-.006-.005l.006.005z"/>
</svg>
